packs/brands/mixcloud.svg

<svg xmlns="http://www.w3.org/2000/svg" viewBox="0 0 640 512"><!--! Font Awesome Free 6.5.2 by @fontawesome - https://fontawesome.com License - https://fontawesome.com/license/free (Icons: CC BY 4.0, Fonts: SIL OFL 1.1, Code: MIT License) Copyright 2024 Fonticons, Inc.--><path d="M212.98 346.566h-33.191V195.114l6.184-21.644h-10.711l-38.135 173.096h-61.02L37.732 173.47H27.276l5.915 21.644v151.452H0V165h65.65l36.598 173.096h8.499L147.329 165h65.651zm331.479-62.977-86.025 62.066v-38.121l72.895-51.758-72.895-51.759v-38.121l86.025 62.335h9.262L640 165.896v38.121l-73.134 51.759L640 307.549v38.106l-86.279-62.066zm-114.302-11.278H248.113v-33.056h182.044z"/></svg>

<svg xmlns="http://www.w3.org/2000/svg" viewBox="0 0 640 512"><!--! Font Awesome Free 6.5.2 by @fontawesome - https://fontawesome.com License - https://fontawesome.com/license/free (Icons: CC BY 4.0, Fonts: SIL OFL 1.1, Code: MIT License) Copyright 2024 Fonticons, Inc. --><path d="M212.98 346.566H179.789V195.114L185.973 173.47H175.262L137.127 346.566H76.1069L37.7323 173.47H27.276L33.1913 195.114V346.566H0V165H65.6506L102.248 338.096H110.747L147.329 165H212.98L212.98 346.566ZM544.459 283.589L458.434 345.655V307.534L531.329 255.776L458.434 204.017V165.896L544.459 228.231H553.721L640 165.896V204.017L566.866 255.776L640 307.549V345.655L553.721 283.589H544.459ZM430.157 272.311H248.113V239.255H430.157V272.311Z"/></svg>
